src/images/press/press-logo-yahoo-finance.svg

<svg id="Layer_1" data-name="Layer 1" xmlns="http://www.w3.org/2000/svg" viewBox="0 0 475 122"><defs><style>.cls-1{fill:#afafb0;}</style></defs><title>press-logo-yahoo-finance</title> <g id="Page-1" stroke="none" stroke-width="1" fill="none" fill-rule="evenodd"> <g id="Artboard" fill="#AFAFB0" fill-rule="nonzero"> <g id="press-logo-yahoo-finance-01" transform="translate(0.000000, 54.000000)"> <path d="M164.743243,0.429942418 C166.032819,0.644913628 166.892535,1.39731286 167,2.79462572 C167,3.11708253 166.892535,3.76199616 166.785071,4.29942418 C165.817889,8.06142035 162.486486,21.4971209 161.196911,30.4184261 L160.337194,29.5585413 L160.874517,30.5259117 C160.22973,30.3109405 159.692407,30.2034549 158.940154,30.3109405 L159.047619,30.2034549 C160.337194,21.3896353 160.981982,12.2533589 161.734234,2.90211132 C161.734234,2.90211132 161.734234,2.79462572 161.734234,2.79462572 C161.734234,2.79462572 161.734234,2.68714012 161.734234,2.68714012 C161.734234,2.47216891 161.841699,2.14971209 161.949163,1.93474088 C162.271557,0.859884837 163.238739,0.322456814 164.20592,0.322456814 C164.528314,0.322456814 164.743243,0.322456814 164.743243,0.322456814 L164.743243,0.429942418 C164.635779,0.429942418 164.635779,0.429942418 164.743243,0.429942418 Z M47.6068211,34.7178503 C46.4247104,31.7082534 45.2425997,28.6986564 43.8455598,25.7965451 C39.6544402,25.6890595 35.4633205,25.6890595 31.3796654,25.7965451 C30.1975547,28.9136276 28.9079794,32.0307102 27.8333333,34.7178503 C26.6512227,34.5028791 24.7168597,34.1804223 22.7824968,34.7178503 L23.7496782,34.2879079 L23.6422136,34.2879079 L22.7824968,34.7178503 C27.0810811,26.1190019 31.7020592,14.403071 35.8931789,4.08445298 C37.2902188,4.51439539 38.2574003,4.51439539 39.4395109,4.08445298 L39.0096525,4.29942418 L39.5469755,4.08445298 C43.4157014,13.9731286 49.6486486,28.9136276 52.7651223,34.7178503 C51.3680824,34.2879079 49.541184,34.1804223 47.7142857,34.7178503 L47.7142857,34.6103647 C47.7142857,34.6103647 47.7142857,34.7178503 47.6068211,34.7178503 Z M37.7200772,9.45873321 C36.6454311,12.5758157 34.6036036,18.0575816 32.3468468,23.7543186 C36.0006435,23.8618042 39.5469755,23.8618042 43.2007722,23.7543186 C41.3738739,18.9174664 39.4395109,14.1880998 37.7200772,9.45873321 Z M17.1943372,22.1420345 L17.8391248,38.6948177 C17.8391248,38.6948177 16.5495495,38.4798464 15.3674389,38.4798464 C14.2927928,38.4798464 12.8957529,38.6948177 12.8957529,38.6948177 L13.1106821,22.2495202 L13.2181467,22.2495202 C10.8539254,18.2725528 4.2985843,6.34165067 0,-3.55271368e-15 C2.04182754,0.537428023 3.00900901,0.429942418 5.05083655,-3.55271368e-15 C7.73745174,4.621881 11.7136422,11.3934741 15.2599743,17.0902111 C18.4839125,11.3934741 23.8571429,2.90211132 25.3616474,0.107485605 L25.2541828,-3.55271368e-15 C25.2541828,-3.55271368e-15 25.3616474,-3.55271368e-15 25.3616474,-3.55271368e-15 C26.8661519,0.322456814 28.478121,0.322456814 30.1975547,0.107485605 C30.3050193,0.107485605 30.3050193,0.107485605 30.4124839,-3.55271368e-15 C28.3706564,2.57965451 21.4929215,14.6180422 17.1943372,22.1420345 Z M99.0823681,3.65451056 C109.076577,3.65451056 115.524453,9.56621881 115.524453,19.6698656 C115.524453,28.3761996 110.151223,35.1477927 98.9749035,35.1477927 C88.7657658,35.1477927 82.5328185,29.1285988 82.5328185,19.4548944 C82.5328185,10.5335893 88.2284427,3.65451056 99.0823681,3.65451056 Z M98.7599743,5.58925144 C92.9568855,5.69673704 87.5836551,9.56621881 87.4761905,19.6698656 C87.4761905,28.3761996 91.7747748,33.5355086 98.9749035,33.5355086 C105.530245,33.5355086 110.473616,29.0211132 110.473616,19.56238 C110.473616,10.1036468 105.530245,5.58925144 98.9749035,5.58925144 C98.8674389,5.58925144 98.8674389,5.58925144 98.7599743,5.58925144 Z M136.372587,1.82725528 C148.516088,1.82725528 155.501287,9.02879079 155.501287,19.4548944 C155.501287,30.6333973 147.978764,36.975048 136.480051,36.975048 C122.832046,36.975048 117.351351,28.6986564 117.351351,19.3474088 C117.351351,7.95393474 125.626126,1.82725528 136.372587,1.82725528 Z M122.402188,19.4548944 C122.402188,30.9558541 129.172458,35.1477927 136.372587,35.2552783 C143.250322,35.2552783 150.45045,31.3857965 150.45045,19.56238 C150.45045,8.70633397 144.539897,3.76199616 136.372587,3.76199616 C129.92471,3.76199616 122.509653,7.30902111 122.402188,19.4548944 Z M158.940154,33.8579655 C160.444659,33.8579655 161.62677,34.8253359 161.62677,36.1151631 C161.62677,37.9424184 160.444659,38.5873321 159.262548,38.5873321 C157.650579,38.8023033 156.468468,37.9424184 156.468468,36.43762 C156.468468,35.1477927 157.220721,33.8579655 158.940154,33.8579655 Z M76.2998713,20.4222649 L75.9774775,20.5297505 C70.3893179,20.4222649 64.6936937,20.5297505 58.9980695,20.5297505 C58.9980695,25.2591171 59.1055341,29.9884837 59.3204633,34.7178503 C57.9234234,34.3953935 56.4189189,34.3953935 55.021879,34.6103647 L54.1621622,34.8253359 C54.5920206,24.6142035 54.5920206,14.403071 54.1621622,4.19193858 L54.3770914,4.29942418 L54.2696268,4.19193858 C55.9890605,4.621881 57.8159588,4.621881 59.3204633,4.19193858 C59.1055341,8.81381958 58.9980695,13.6506718 58.9980695,18.3800384 C64.6936937,18.487524 70.3893179,18.487524 76.0849421,18.3800384 C76.0849421,13.6506718 75.9774775,8.92130518 75.7625483,4.19193858 L76.0849421,4.29942418 L75.9774775,4.19193858 C77.481982,4.621881 79.3088803,4.621881 81.028314,4.19193858 C80.5984556,14.403071 80.5984556,24.5067179 81.028314,34.7178503 C81.028314,34.7178503 81.028314,34.8253359 81.028314,34.8253359 L80.0611326,34.5028791 C78.7715573,34.3953935 77.3745174,34.3953935 76.0849421,34.7178503 L76.2998713,34.6103647 L75.9774775,34.7178503 C76.1924067,29.9884837 76.2998713,25.1516315 76.2998713,20.4222649 Z M45.6724582,55.7850288 L45.6724582,44.6065259 L53.6248391,44.6065259 L53.6248391,45.681382 L48.466538,45.681382 L48.466538,49.2284069 L53.1949807,49.2284069 L53.1949807,50.303263 L48.466538,50.303263 L48.466538,55.7850288 L45.6724582,55.7850288 Z M56.2039897,44.6065259 L58.9980695,44.6065259 L58.9980695,55.7850288 L56.2039897,55.7850288 L56.2039897,44.6065259 Z M69.7445302,51.5930902 L69.7445302,44.6065259 L71.5714286,44.6065259 L71.5714286,56 L70.1743887,56 L63.1891892,48.2610365 L63.1891892,56 L61.4697555,56 L61.4697555,44.6065259 L61.6846847,44.6065259 L63.1891892,44.6065259 L69.7445302,51.5930902 Z M78.5566281,44.3915547 L79.7387387,44.3915547 L84.8970399,55.7850288 L82.1029601,55.7850288 L80.8133848,52.6679463 L76.4073359,52.6679463 L74.9028314,55.7850288 L73.0759331,55.7850288 L78.5566281,44.3915547 Z M76.9446589,51.5930902 L80.2760618,51.5930902 L78.7715573,47.9385797 L76.9446589,51.5930902 Z M94.5688546,51.5930902 L94.5688546,44.6065259 L96.3957529,44.6065259 L96.3957529,56 L95.1061776,56 L88.1209781,48.2610365 L88.1209781,56 L86.2940798,56 L86.2940798,44.6065259 L88.1209781,44.6065259 L94.5688546,51.5930902 Z M112.945302,55.7850288 L112.945302,44.6065259 L121.220077,44.6065259 L121.220077,45.681382 L115.524453,45.681382 L115.524453,49.2284069 L120.145431,49.2284069 L120.145431,50.303263 L115.524453,50.303263 L115.524453,54.7101727 L121.220077,54.7101727 L121.220077,55.7850288 L112.945302,55.7850288 Z M102.736165,46.0038388 C102.306306,46.5412668 101.983912,47.0786948 101.446589,47.6161228 C101.23166,48.2610365 101.124196,49.0134357 101.124196,49.7658349 C101.124196,50.6257198 101.23166,51.2706334 101.446589,51.915547 C101.661519,52.5604607 101.983912,53.0978887 102.413771,53.5278311 C102.843629,53.9577735 103.380952,54.2802303 103.918275,54.4952015 C104.455598,54.7101727 105.100386,54.8176583 105.745174,54.8176583 C106.175032,54.8176583 106.604891,54.7101727 106.927284,54.6026871 C107.357143,54.3877159 107.679537,54.1727447 108.001931,53.9577735 C108.324324,53.6353167 108.646718,53.4203455 108.861647,53.0978887 C109.184041,52.7754319 109.39897,52.452975 109.506435,52.1305182 L110.366152,52.6679463 C110.151223,52.9904031 109.828829,53.4203455 109.506435,53.7428023 C109.184041,54.1727447 108.861647,54.3877159 108.431789,54.7101727 C108.001931,55.0326296 107.572072,55.2476008 107.034749,55.3550864 C106.497426,55.462572 105.852638,55.5700576 105.207851,55.5700576 C104.240669,55.5700576 103.380952,55.462572 102.6287,55.1401152 C101.768983,54.8176583 101.124196,54.3877159 100.586873,53.8502879 C100.04955,53.4203455 99.6196911,52.7754319 99.2972973,52.0230326 C98.9749035,51.2706334 98.8674389,50.5182342 98.8674389,49.7658349 C98.8674389,49.3358925 98.8674389,48.6909789 99.0823681,48.2610365 C99.2972973,47.831094 99.5122265,47.293666 99.7271557,46.8637236 C99.9420849,46.4337812 100.264479,46.0038388 100.694337,45.681382 C101.124196,45.2514395 101.554054,44.9289827 101.983912,44.7140115 C102.521236,44.3915547 103.058559,44.1765835 103.595882,44.0690979 C104.133205,43.9616123 104.777992,43.8541267 105.42278,43.8541267 C106.067568,43.8541267 106.604891,43.8541267 107.142214,44.0690979 C107.679537,44.2840691 108.109395,44.4990403 108.539254,44.7140115 C108.969112,45.0364683 109.39897,45.3589251 109.721364,45.681382 C110.043758,46.0038388 110.366152,46.3262956 110.581081,46.756238 L109.721364,47.293666 C109.291506,46.3262956 108.646718,45.8963532 108.001931,45.4664107 C107.357143,45.0364683 106.81982,44.8214971 106.067568,44.8214971 C105.42278,44.8214971 104.777992,44.7140115 104.240669,44.9289827 C103.703346,45.2514395 103.166023,45.5738964 102.736165,46.0038388 Z" id="Combined-Shape"></path> </g> </g> </g> </svg>

<?xml version="1.0" encoding="utf-8"?>
<!-- Generator: Adobe Illustrator 22.1.0, SVG Export Plug-In . SVG Version: 6.00 Build 0)  -->
<svg version="1.1" id="Layer_1" xmlns="http://www.w3.org/2000/svg" xmlns:xlink="http://www.w3.org/1999/xlink" x="0px" y="0px"
	 viewBox="0 0 475 122" style="enable-background:new 0 0 475 122;" xml:space="preserve">
<style type="text/css">
	.st0{fill:#AFAFB0;}
</style>
<title>press-logo-yahoo-finance</title>
<g id="Page-1">
	<g id="Artboard">
		<g id="press-logo-yahoo-finance-01" transform="translate(0.000000, 54.000000)">
			<path id="Combined-Shape" class="st0" d="M164.7,0.4c1.3,0.2,2.1,1,2.3,2.4c0,0.3-0.1,1-0.2,1.5c-1,3.8-4.3,17.2-5.6,26.1
				l-0.9-0.9l0.5,1c-0.6-0.2-1.2-0.3-1.9-0.2l0.1-0.1c1.3-8.8,1.9-18,2.7-27.3V2.8V2.7c0-0.2,0.1-0.5,0.2-0.8
				c0.3-1.1,1.3-1.6,2.3-1.6c0.3,0,0.5,0,0.5,0V0.4C164.6,0.4,164.6,0.4,164.7,0.4z M47.6,34.7c-1.2-3-2.4-6-3.8-8.9
				c-4.2-0.1-8.4-0.1-12.5,0c-1.2,3.1-2.5,6.2-3.5,8.9c-1.2-0.2-3.1-0.5-5.1,0l1-0.4h-0.1l-0.9,0.4c4.3-8.6,8.9-20.3,13.1-30.6
				c1.4,0.4,2.4,0.4,3.5,0L39,4.3l0.5-0.2c3.9,9.9,10.1,24.8,13.2,30.6c-1.4-0.4-3.2-0.5-5.1,0v-0.1C47.7,34.6,47.7,34.7,47.6,34.7z
				 M37.7,9.5c-1.1,3.1-3.1,8.6-5.4,14.3c3.7,0.1,7.2,0.1,10.9,0C41.4,18.9,39.4,14.2,37.7,9.5z M17.2,22.1l0.6,16.6
				c0,0-1.3-0.2-2.5-0.2c-1.1,0-2.5,0.2-2.5,0.2l0.2-16.4h0.1C10.9,18.3,4.3,6.3,0,0c2,0.5,3,0.4,5.1,0c2.7,4.6,6.7,11.4,10.2,17.1
				c3.2-5.7,8.6-14.2,10.1-17L25.3,0h0.1c1.5,0.3,3.1,0.3,4.8,0.1c0.1,0,0.1,0,0.2-0.1C28.4,2.6,21.5,14.6,17.2,22.1z M99.1,3.7
				c10,0,16.4,5.9,16.4,16c0,8.7-5.4,15.5-16.5,15.5c-10.2,0-16.4-6-16.4-15.7C82.5,10.5,88.2,3.7,99.1,3.7z M98.8,5.6
				c-5.8,0.1-11.2,4-11.3,14.1c0,8.7,4.3,13.9,11.5,13.9c6.6,0,11.5-4.5,11.5-14s-4.9-14-11.5-14C98.9,5.6,98.9,5.6,98.8,5.6z
				 M136.4,1.8c12.1,0,19.1,7.2,19.1,17.6c0,11.2-7.5,17.5-19,17.5c-13.6,0-19.1-8.3-19.1-17.6C117.4,8,125.6,1.8,136.4,1.8z
				 M122.4,19.5c0,11.5,6.8,15.7,14,15.8c6.9,0,14.1-3.9,14.1-15.7c0-10.9-5.9-15.8-14.1-15.8C129.9,3.8,122.5,7.3,122.4,19.5z
				 M158.9,33.9c1.5,0,2.7,1,2.7,2.3c0,1.8-1.2,2.5-2.4,2.5c-1.6,0.2-2.8-0.6-2.8-2.1C156.5,35.1,157.2,33.9,158.9,33.9z M76.3,20.4
				L76,20.5c-5.6-0.1-11.3,0-17,0c0,4.7,0.1,9.5,0.3,14.2c-1.4-0.3-2.9-0.3-4.3-0.1l-0.9,0.2c0.4-10.2,0.4-20.4,0-30.6l0.2,0.1
				l-0.1-0.1c1.7,0.4,3.5,0.4,5.1,0C59.1,8.8,59,13.7,59,18.4c5.7,0.1,11.4,0.1,17.1,0c0-4.7-0.1-9.5-0.3-14.2l0.3,0.1L76,4.2
				c1.5,0.4,3.3,0.4,5.1,0c-0.4,10.2-0.4,20.3,0,30.5v0.1l-1-0.3c-1.3-0.1-2.7-0.1-4,0.2l0.2-0.1L76,34.7
				C76.2,30,76.3,25.2,76.3,20.4z M45.7,55.8V44.6h8v1.1h-5.2v3.5h4.7v1.1h-4.7v5.5H45.7z M56.2,44.6H59v11.2h-2.8V44.6z M69.7,51.6
				v-7h1.8V56h-1.4l-7-7.7V56h-1.7V44.6h0.2h1.5L69.7,51.6z M78.6,44.4h1.2l5.2,11.4h-2.8l-1.3-3.1h-4.4l-1.5,3.1h-1.8L78.6,44.4z
				 M76.9,51.6h3.3l-1.5-3.7L76.9,51.6z M94.6,51.6v-7h1.8V56h-1.3l-7-7.7V56h-1.8V44.6h1.8L94.6,51.6z M112.9,55.8V44.6h8.3v1.1
				h-5.7v3.5h4.6v1.1h-4.6v4.4h5.7v1.1H112.9z"/>
		</g>
	</g>
</g>
<path class="st0" d="M110.4,100.7c0.2,0.3,0.7,0.6,0,1c-0.4,0.2-0.7,0.7-1.2,0c-0.4-0.6-0.9-1-1.5-1.4c-1.8-1.1-4.1-0.6-5.2,1.2
	c-1,1.8-1,3.6-0.1,5.4c1.4,2.6,4.5,2.7,6.6,0.2c0.2-0.3,0.3-1,1-0.4c0.6,0.4,0.6,0.7,0.2,1.3c-1.8,2.1-4.1,2.4-6.2,2.2
	c-2.2-0.2-4.4-1.8-5.1-4.2c-1-3.8,1.7-7.3,5.6-7.6C107.2,98.1,109.1,99,110.4,100.7z"/>
</svg>
